icons/icon-maskable-512.svg

<svg xmlns="http://www.w3.org/2000/svg" viewBox="0 0 100 100">
    <rect width="100" height="100" fill="#000000"/>
    <path fill="#ffffff" d="M16 55h22v4H16z M18 59l-2 5h22l-2-5z M19 64h16v21H19z M17 85h20v5H17z M39 35h22v4H39z M41 39l-2 5h22l-2-5z M42 44h16v41H42z M40 85h20v5H40z M62 15h22v4H62z M64 19l-2 5h22l-2-5z M65 24h16v61H65z M63 85h20v5H63z"/>
</svg>

<!-- [ANALYSIS PROGRESS]: 100% - Estrutura SVG otimizada. Redundâncias de grupo removidas. -->
<svg xmlns="http://www.w3.org/2000/svg" viewBox="0 0 100 100">
  <rect width="100" height="100" fill="#000000"/>
  <g transform="translate(10 10) scale(0.8)" fill="white">
    <g>
        <rect x="16" y="55" width="22" height="4" ry="1"/>
        <path d="M 18 59 L 16 64 L 38 64 L 36 59 Z"/>
        <rect x="19" y="64" width="16" height="21"/>
        <rect x="17" y="85" width="20" height="5" ry="1"/>
    </g>
    <g>
        <rect x="39" y="35" width="22" height="4" ry="1"/>
        <path d="M 41 39 L 39 44 L 61 44 L 59 39 Z"/>
        <rect x="42" y="44" width="16" height="41"/>
        <rect x="40" y="85" width="20" height="5" ry="1"/>
    </g>
    <g>
        <rect x="62" y="15" width="22" height="4" ry="1"/>
        <path d="M 64 19 L 62 24 L 84 24 L 82 19 Z"/>
        <rect x="65" y="24" width="16" height="61"/>
        <rect x="63" y="85" width="20" height="5" ry="1"/>
    </g>
  </g>
</svg>
